X: 43290
T: Woodcock, The
R: jig
M: 6/8
K: Gmajor
|:B/c/|dBG cGE|DED G2A|BAB dcB|dcB ABc|
dBG cGE|DED G2A|BAB dcB|AGF G2:|
|:B|dcd ede|fef g2e|dge dBc|dcB ABc|
dcd ede|fef g2e|dge dBG|AGF G2:|

